images_breeze_svg/cmd/32/masterlayouts.svg

<svg viewBox="0 0 32 32" xmlns="http://www.w3.org/2000/svg"><path d="m4 6v12 1l5.0996094 5.099609 2.9003906-1.572265v-4.527344h-7v-11h22v7.402344l.521484-.283203.478516-.238282v-7.880859zm23.998047 9-23.998047 13h2.0976562 21.9003908v-1-10.863281zm-1 1.679688v10.320312h-19.0546876z" fill="#1d99f3"/></svg>

<?xml version="1.0" encoding="UTF-8" standalone="no"?>
<svg
   xmlns:dc="http://purl.org/dc/elements/1.1/"
   xmlns:cc="http://creativecommons.org/ns#"
   xmlns:rdf="http://www.w3.org/1999/02/22-rdf-syntax-ns#"
   xmlns:svg="http://www.w3.org/2000/svg"
   xmlns="http://www.w3.org/2000/svg"
   xmlns:sodipodi="http://sodipodi.sourceforge.net/DTD/sodipodi-0.dtd"
   xmlns:inkscape="http://www.inkscape.org/namespaces/inkscape"
   viewBox="0 0 32 32"
   version="1.1"
   id="svg4"
   sodipodi:docname="masterlayouts.svg"
   inkscape:version="0.92.4 (unknown)"
   inkscape:export-filename="/home/rizmut/Dokumen/Rizmut/Github/tmp/breeze/cmd/32/masterlayouts.png"
   inkscape:export-xdpi="96"
   inkscape:export-ydpi="96">
  <metadata
     id="metadata10">
    <rdf:RDF>
      <cc:Work
         rdf:about="">
        <dc:format>image/svg+xml</dc:format>
        <dc:type
           rdf:resource="http://purl.org/dc/dcmitype/StillImage" />
        <dc:title></dc:title>
      </cc:Work>
    </rdf:RDF>
  </metadata>
  <defs
     id="defs8" />
  <sodipodi:namedview
     pagecolor="#ffffff"
     bordercolor="#666666"
     borderopacity="1"
     objecttolerance="10"
     gridtolerance="10"
     guidetolerance="10"
     inkscape:pageopacity="0"
     inkscape:pageshadow="2"
     inkscape:window-width="1360"
     inkscape:window-height="714"
     id="namedview6"
     showgrid="true"
     inkscape:snap-global="true"
     inkscape:zoom="16"
     inkscape:cx="11.198848"
     inkscape:cy="9.5909283"
     inkscape:window-x="0"
     inkscape:window-y="28"
     inkscape:window-maximized="1"
     inkscape:current-layer="svg4">
    <inkscape:grid
       type="xygrid"
       id="grid823" />
  </sodipodi:namedview>
  <path
     style="fill:#1d99f3;stroke:none"
     d="M 4 6 L 4 18 L 4 19 L 9.0996094 24.099609 L 12 22.527344 L 12 18 L 5 18 L 5 7 L 27 7 L 27 14.402344 L 27.521484 14.119141 L 28 13.880859 L 28 6 L 4 6 z M 27.998047 15 L 4 28 L 6.0976562 28 L 27.998047 28 L 27.998047 27 L 27.998047 16.136719 L 27.998047 15 z M 26.998047 16.679688 L 26.998047 27 L 7.9433594 27 L 26.998047 16.679688 z "
     id="path2" />
</svg>
